assets/lib/simple-icons/icons/audio-technica.svg

<svg role="img" viewBox="0 0 24 24" xmlns="http://www.w3.org/2000/svg"><title>Audio-Technica icon</title><path d="M 12,0 A 12.007568,12.007568 0 0 0 0,12 12.034059,12.034059 0 0 0 12,24.030275 12.034059,12.034059 0 0 0 24,12 12.007568,12.007568 0 0 0 12.003784,0 Z m 0,0.90444656 A 11.09177,11.09177 0 0 1 23.099338,11.996216 c 0,6.130558 -4.964995,11.125828 -11.099338,11.125828 A 11.118259,11.118259 0 0 1 0.90823086,12 11.09177,11.09177 0 0 1 11.996216,0.90823086 Z M 12.08704,2.0662252 11.65563,3.3188269 5.9754032,19.402081 5.7710512,20.007569 H 18.440871 L 18.210029,19.402081 12.526017,3.3150427 Z m 0,2.8003785 2.009461,5.6499533 -3.027437,8.563859 H 7.050142 Z m 2.505204,7.0463573 2.535478,7.163671 h -5.097446 z"/></svg>

<svg role="img" viewBox="0 0 24 24" xmlns="http://www.w3.org/2000/svg"><title>Audio-Technica icon</title><path d="M12 0A11.992 11.992 0 00.015 11.985 12.019 12.019 0 0012 24a12.019 12.019 0 0011.985-12.015A11.992 11.992 0 0012.004 0zm0 .903a11.078 11.078 0 0111.085 11.078c0 6.123-4.958 11.112-11.085 11.112A11.104 11.104 0 01.922 11.985 11.078 11.078 0 0111.996.907zm.087 1.16l-.43 1.252-5.674 16.063-.204.604h12.654l-.23-.604L12.524 3.31zm0 2.797l2.007 5.643-3.024 8.553H7.056zm2.502 7.038l2.532 7.155h-5.09z"/></svg>
